svgicons/cloud-error-b.svg

<svg xmlns="http://www.w3.org/2000/svg" xml:space="preserve" style="fill-rule:evenodd;clip-rule:evenodd;stroke-linejoin:round;stroke-miterlimit:2" viewBox="0 0 1000 1000"><path d="M709.384 208.984c0 15.903-2.998 31.155-8.34 45.103 76.102 15.382 133.44 82.777 133.44 163.468 0 92.162-74.669 166.857-166.8 166.857h-479.55c-103.599 0-187.65-84.08-187.65-187.714 0-81.864 52.385-151.475 125.36-177.156-.13-3.519-.26-7.039-.26-10.558 0-115.236 93.303-208.572 208.5-208.572 77.275 0 144.647 41.975 180.743 104.547 19.808-13.297 43.785-21.118 69.457-21.118 69.065 0 125.1 56.053 125.1 125.143Zm-161.031 54.674-78.518 78.795 78.518 78.795c9.636 9.677 9.636 25.354 0 35.024l-17.45 17.512c-9.635 9.669-25.265 9.669-34.901 0l-78.518-78.796-78.519 78.796c-9.635 9.669-25.265 9.669-34.901 0l-17.45-17.512c-9.635-9.677-9.635-25.355 0-35.024l78.519-78.795-78.519-78.795c-9.635-9.677-9.635-25.354 0-35.024l17.45-17.511c9.643-9.67 25.266-9.67 34.901 0l78.519 78.795 78.518-78.795c9.643-9.67 25.266-9.67 34.901 0l17.45 17.511c9.636 9.677 9.636 25.355 0 35.024Z" style="fill:#767676" transform="translate(0 149.701) scale(1.1976)"/></svg>

<svg width="835" height="585" viewBox="0 0 835 585" fill="none" xmlns="http://www.w3.org/2000/svg">
<path fill-rule="evenodd" clip-rule="evenodd" d="M709.384 208.984C709.384 224.887 706.386 240.139 701.044 254.087C777.146 269.469 834.484 336.864 834.484 417.555C834.484 509.717 759.815 584.412 667.684 584.412H188.134C84.5352 584.412 0.483643 500.332 0.483643 396.698C0.483643 314.834 52.8693 245.223 125.844 219.542C125.714 216.023 125.584 212.503 125.584 208.984C125.584 93.7478 218.887 0.412109 334.084 0.412109C411.359 0.412109 478.731 42.3871 514.827 104.959C534.635 91.6621 558.612 83.8407 584.284 83.8407C653.349 83.8407 709.384 139.894 709.384 208.984ZM548.353 263.658L469.835 342.453L548.353 421.248C557.989 430.925 557.989 446.602 548.353 456.272L530.903 473.784C521.268 483.453 505.638 483.453 496.002 473.784L417.484 394.988L338.965 473.784C329.33 483.453 313.7 483.453 304.064 473.784L286.614 456.272C276.979 446.595 276.979 430.917 286.614 421.248L365.133 342.453L286.614 263.658C276.979 253.981 276.979 238.304 286.614 228.634L304.064 211.123C313.707 201.453 329.33 201.453 338.965 211.123L417.484 289.918L496.002 211.123C505.645 201.453 521.268 201.453 530.903 211.123L548.353 228.634C557.989 238.311 557.989 253.989 548.353 263.658Z" fill="#767676"/>
</svg>
